brandFactory_export/3.Masa/Niño_3Masa.svg

<?xml version="1.0" encoding="UTF-8"?>
<svg width="24px" height="24px" viewBox="0 0 24 24" version="1.1" xmlns="http://www.w3.org/2000/svg" xmlns:xlink="http://www.w3.org/1999/xlink">
    <title>3.Masa/Niño_3Masa</title>
    <g id="Symbols" stroke="none" stroke-width="1" fill="none" fill-rule="evenodd">
        <g id="3.Masa/Niño_3Masa" fill="#5CB615" fill-rule="nonzero">
            <path d="M13.0453782,18.1529412 C13.3243697,17.8773109 13.7747899,17.8773109 14.0537815,18.1529412 C14.3327731,18.4285714 14.3327731,18.8756303 14.0537815,19.1478992 C13.3747899,19.8168067 12.6420168,20.1663866 11.8722689,20.1764706 L11.8285714,20.1764706 C11.0487395,20.1764706 10.2991597,19.8302521 9.60672269,19.1445378 C9.32773109,18.8689076 9.32773109,18.4252101 9.60672269,18.1495798 C9.88571429,17.8739496 10.3361345,17.8739496 10.6151261,18.1495798 C11.0386555,18.5697479 11.4588235,18.7714286 11.8521008,18.7714286 C12.2352941,18.7647059 12.6386555,18.5563025 13.0453782,18.1529412 L13.0453782,18.1529412 Z M9.65714286,15.5613445 C9.65714286,15.9512605 9.33781513,16.2638655 8.94453782,16.2638655 C8.5512605,16.2638655 8.23193277,15.9478992 8.23193277,15.5613445 L8.23193277,13.3630252 C8.23193277,12.9731092 8.5512605,12.6605042 8.94453782,12.6605042 C9.33781513,12.6605042 9.65714286,12.9764706 9.65714286,13.3630252 L9.65714286,15.5613445 Z M14.6184874,12.6605042 C15.0117647,12.6605042 15.3310924,12.9764706 15.3310924,13.3630252 L15.3310924,15.5613445 C15.3310924,15.9512605 15.0117647,16.2638655 14.6184874,16.2638655 C14.2252101,16.2638655 13.9058824,15.9478992 13.9058824,15.5613445 L13.9058824,13.3630252 C13.9058824,12.9764706 14.2252101,12.6605042 14.6184874,12.6605042 L14.6184874,12.6605042 Z M21.0722689,16.794958 C21.8184874,16.7848739 22.1983193,16.3815126 22.1983193,15.5983193 C22.1983193,14.8218487 21.8285714,14.4285714 21.0991597,14.4151261 L21.0521008,14.8386555 C21.0521008,14.9428571 21.0352941,15.0369748 21.0352941,15.1344538 C21.0016807,15.6319328 20.9478992,16.2 20.8537815,16.7915966 C20.8806723,16.794958 20.9042017,16.794958 20.9176471,16.794958 L21.0722689,16.794958 L21.0722689,16.794958 Z M19.6773109,12.7344538 L19.6773109,11.7159664 C19.6672269,11.6756303 19.6638655,11.6352941 19.6638655,11.5915966 C19.6605042,11.4638655 19.6504202,11.3529412 19.6470588,11.2285714 L3.90252101,11.2285714 L3.89243697,13.7563025 C3.89915966,13.7966387 3.90588235,13.8369748 3.90588235,13.8773109 C4.04369748,19.0470588 5.38487395,21.2521008 8.38319328,21.2521008 C8.57142857,21.2521008 8.74957983,21.2420168 8.9210084,21.2319328 L14.6084034,21.2285714 C15.0453782,21.2554622 15.3781513,21.2554622 15.7277311,21.2319328 L15.8487395,21.2319328 C15.8823529,21.2252101 15.9159664,21.2184874 15.9495798,21.2151261 C17.4655462,21.0638655 19.4957983,20.1361345 19.6638655,13.8806723 C19.6638655,13.8369748 19.6672269,13.7966387 19.6773109,13.7563025 L19.6773109,12.7344538 Z M9.2605042,4.87563025 C8.01008403,6.07226891 7.28739496,7.73613445 7.09579832,9.82016807 L8.52436975,9.82016807 C8.70588235,8.1394958 9.27731092,6.81848739 10.2487395,5.88739496 C10.7226891,5.43361345 11.3176471,5.0907563 11.9764706,4.82521008 C12.6352941,5.09411765 13.2268908,5.43361345 13.7008403,5.88739496 C14.6722689,6.81512605 15.2470588,8.1394958 15.4252101,9.82016807 L16.8571429,9.82016807 C16.6621849,7.73613445 15.9428571,6.07226891 14.692437,4.87563025 C14.4840336,4.67394958 14.2521008,4.49243697 14.0168067,4.31764706 L13.8957983,4.23697479 L10.0571429,4.24033613 L9.9394958,4.31764706 C9.70084034,4.49243697 9.46890756,4.67394958 9.2605042,4.87563025 Z M2.70252101,16.794958 C2.7092437,16.794958 2.71932773,16.794958 2.72605042,16.7915966 C2.63865546,16.2436975 2.57815126,15.6890756 2.54117647,15.1445378 C2.53109244,15.0436975 2.51092437,14.9462185 2.50420168,14.8386555 L2.47058824,14.4252101 C1.78151261,14.4554622 1.42521008,14.8453782 1.42521008,15.6016807 C1.42521008,16.3848739 1.80168067,16.7882353 2.5512605,16.7983193 L2.70252101,16.794958 L2.70252101,16.794958 Z M21.1058824,13.0033613 C22.2689076,13.0134454 23.6235294,13.6991597 23.6235294,15.594958 C23.6235294,17.4907563 22.2621849,18.1831933 21.092437,18.2 L20.8941176,18.2 C20.8201681,18.2 20.712605,18.1932773 20.5781513,18.1764706 C20.5747899,18.1764706 20.5680672,18.1731092 20.5613445,18.1731092 C20.0033613,20.2369748 18.8235294,22.2470588 16.2823529,22.5932773 C16.205042,22.6235294 16.1210084,22.6403361 16.0336134,22.6403361 L15.7747899,22.6403361 C15.6168067,22.6537815 15.4084034,22.6638655 15.189916,22.6638655 C14.9714286,22.6638655 14.7663866,22.6504202 14.5647059,22.6403361 L8.97142857,22.6403361 C8.81344538,22.6537815 8.60504202,22.6638655 8.38319328,22.6638655 C5.14285714,22.6638655 3.68067227,20.6268908 3.01848739,18.1798319 C2.89747899,18.1932773 2.79663866,18.2 2.72941176,18.2 L2.53109244,18.2 C1.36806723,18.1831933 0.00336134454,17.4907563 0.00336134454,15.594958 C0.00336134454,13.7226891 1.32773109,13.0336134 2.47731092,13.0067227 L2.48403361,11.2285714 L0.715966387,11.2285714 C0.322689076,11.2285714 0.00336134454,10.912605 0.00336134454,10.5260504 C0.00336134454,10.1361345 0.322689076,9.82352941 0.715966387,9.82352941 L2.51764706,9.82352941 C2.71932773,6.08235294 3.71764706,2.81176471 8.38655462,2.81176471 C8.60504202,2.81176471 8.81680672,2.82184874 9.02184874,2.83865546 L10.7159664,2.83865546 C10.6420168,2.66722689 10.5915966,2.47563025 10.5915966,2.24033613 C10.5915966,1.84033613 10.702521,1.52773109 10.9243697,1.31932773 C11.1327731,1.11764706 11.4420168,1.01680672 11.8319328,1.01680672 C12.2218487,1.01680672 12.5277311,1.11764706 12.7394958,1.31932773 C12.9579832,1.53109244 13.0689076,1.84033613 13.0689076,2.24033613 C13.0689076,2.47226891 13.0218487,2.66722689 12.9478992,2.83865546 L14.6117647,2.83865546 C14.9210084,2.81512605 15.4184874,2.81512605 15.8285714,2.84201681 L16.0571429,2.86218487 C16.1445378,2.86890756 16.2084034,2.87226891 16.2991597,2.88571429 C20.1512605,3.42016807 20.8773109,7.78655462 21.0420168,10.3478992 C21.0554622,10.4588235 21.0554622,10.5596639 21.0554622,10.6638655 L21.1058824,12.7445378 L21.1058824,13.0033613 Z" id="Niño_3Masa"></path>
        </g>
    </g>
</svg>

<svg width="24" height="24" viewBox="0 0 24 24" xmlns="http://www.w3.org/2000/svg"><path d="M13.045 18.153a.718.718 0 011.009 0 .696.696 0 010 .995c-.68.669-1.412 1.018-2.182 1.028h-.043c-.78 0-1.53-.346-2.222-1.031a.696.696 0 010-.995.718.718 0 011.008 0c.424.42.844.621 1.237.621.383-.006.787-.215 1.193-.618zM9.657 15.56c0 .39-.32.703-.712.703a.709.709 0 01-.713-.703v-2.198c0-.39.32-.702.713-.702.393 0 .712.315.712.702v2.198zm4.961-2.9c.394 0 .713.315.713.702v2.198c0 .39-.32.703-.713.703a.709.709 0 01-.712-.703v-2.198c0-.387.32-.702.712-.702zm6.454 4.134c.746-.01 1.126-.413 1.126-1.197 0-.776-.37-1.17-1.099-1.183l-.047.424c0 .104-.017.198-.017.295a18.537 18.537 0 01-.181 1.658c.027.003.05.003.064.003h.154zm-1.395-4.06v-1.019a.504.504 0 01-.013-.124c-.003-.128-.014-.24-.017-.363H3.903l-.01 2.527c.006.04.013.081.013.121.138 5.17 1.479 7.375 4.477 7.375.188 0 .367-.01.538-.02l5.687-.003c.437.026.77.026 1.12.003h.12c.034-.007.068-.014.102-.017 1.516-.151 3.546-1.079 3.714-7.334 0-.044.003-.084.013-.125v-1.022zM9.261 4.874C8.01 6.073 7.287 7.737 7.096 9.82h1.428c.182-1.68.753-3.002 1.725-3.933.474-.453 1.069-.796 1.727-1.062.66.27 1.25.609 1.725 1.062.971.928 1.546 2.252 1.724 3.933h1.432c-.195-2.084-.914-3.748-2.165-4.944a6.768 6.768 0 00-.675-.558l-.121-.081-3.839.003-.118.078c-.238.174-.47.356-.678.558zm-6.558 11.92c.006 0 .016 0 .023-.003a18.421 18.421 0 01-.185-1.647c-.01-.101-.03-.199-.037-.306l-.033-.414c-.69.03-1.046.42-1.046 1.177 0 .783.377 1.186 1.126 1.196l.152-.003zm18.403-3.792c1.163.01 2.518.696 2.518 2.592 0 1.896-1.362 2.588-2.532 2.605h-.198c-.074 0-.181-.007-.316-.024-.003 0-.01-.003-.017-.003-.558 2.064-1.737 4.074-4.279 4.42a.682.682 0 01-.248.047h-.26a7.159 7.159 0 01-.584.024c-.219 0-.424-.014-.625-.024H8.97a7.182 7.182 0 01-.588.024c-3.24 0-4.702-2.037-5.365-4.484-.12.013-.221.02-.289.02h-.198c-1.163-.017-2.528-.71-2.528-2.605 0-1.872 1.325-2.561 2.474-2.588l.007-1.778H.716a.709.709 0 01-.713-.703c0-.39.32-.702.713-.702h1.802c.201-3.742 1.2-7.012 5.869-7.012.218 0 .43.01.635.027h1.694a1.469 1.469 0 01-.124-.599c0-.4.11-.712.332-.92.209-.202.518-.303.908-.303s.696.1.907.302c.219.212.33.521.33.921 0 .232-.047.427-.121.599h1.664c.309-.024.806-.024 1.217.003l.228.02c.088.007.151.01.242.024 3.852.534 4.578 4.9 4.743 7.462.013.11.013.212.013.316l.05 2.08v.26z" fill="#5CB615" fill-rule="nonzero"/></svg>
